img/advantages-5.svg

<svg width="66" height="66" viewBox="0 0 66 66" fill="none" xmlns="http://www.w3.org/2000/svg">
<g clip-path="url(#clip0_96182_462)">
<path d="M15.6364 60.3152H11.1891C10.1966 60.3152 9.39734 59.516 9.39734 58.5234C9.39734 57.5308 10.1966 56.7316 11.1891 56.7316H15.6364C16.629 56.7316 17.4282 57.5308 17.4282 58.5234C17.4282 59.516 16.629 60.3152 15.6364 60.3152Z" fill="#F0BF5F"/>
<path d="M64.2083 60.3152H59.4903C58.4977 60.3152 57.6985 59.516 57.6985 58.5234C57.6985 57.5308 58.4977 56.7316 59.4903 56.7316H64.2083C65.2008 56.7316 66 57.5308 66 58.5234C66 59.516 65.2008 60.3152 64.2083 60.3152Z" fill="#F0BF5F"/>
<path d="M62.2361 60.0961H59.4904C58.4978 60.0961 57.6986 59.2969 57.6986 58.3043C57.6986 57.3117 58.4978 56.5125 59.4904 56.5125H60.4443V55.7262C60.4443 52.0652 58.8845 49.1133 55.9326 47.1797C53.7798 45.7746 51.047 45.027 48.0306 45.027H21.9013C19.5165 45.027 17.4283 46.7156 16.9384 49.0617L15.3658 56.5125H15.9072C16.8997 56.5125 17.699 57.3117 17.699 58.3043C17.699 59.2969 16.8997 60.0961 15.9072 60.0961H13.1615C12.62 60.0961 12.1044 59.8512 11.7693 59.4387C11.4341 59.0133 11.2923 58.4719 11.4083 57.9434L13.4322 48.327C14.27 44.3437 17.8408 41.4434 21.9142 41.4434H48.0435C51.756 41.4434 55.172 42.3844 57.9048 44.1762C61.8622 46.7672 64.0408 50.8664 64.0408 55.7262V58.3043C64.0279 59.2969 63.2286 60.0961 62.2361 60.0961Z" fill="#F0BF5F"/>
<path d="M41.959 60.0961H28.282C27.2895 60.0961 26.4902 59.2969 26.4902 58.3043C26.4902 57.3117 27.2895 56.5125 28.282 56.5125H41.9719C42.9645 56.5125 43.7637 57.3117 43.7637 58.3043C43.7637 59.2969 42.9516 60.0961 41.959 60.0961Z" fill="#F0BF5F"/>
<path d="M48.0305 43.2352C50.7375 43.2352 53.277 43.7895 55.4297 44.8465L52.916 33.9539C52.2199 31.2985 49.8094 29.4422 47.0637 29.4422H31.0922C28.643 29.4422 26.4387 30.9117 25.5106 33.1805L21.7594 43.2352H48.0305Z" fill="#CEE8FA"/>
<path d="M55.4296 46.6383C55.1589 46.6383 54.8882 46.5738 54.6433 46.4578C52.7355 45.5297 50.4409 45.027 48.0304 45.027H21.7593C21.1663 45.027 20.6249 44.7434 20.2897 44.2535C19.9546 43.7766 19.8772 43.1578 20.0835 42.6035L23.8347 32.5488C23.8476 32.5231 23.8476 32.5102 23.8605 32.4844C25.0722 29.5453 27.921 27.6375 31.105 27.6375H47.0765C50.6343 27.6375 53.7538 30.0352 54.6562 33.477C54.6562 33.4899 54.669 33.5156 54.669 33.5285L57.1827 44.4211C57.3374 45.0914 57.0925 45.8004 56.5511 46.2258C56.2288 46.5094 55.8292 46.6383 55.4296 46.6383ZM24.3503 41.4434H48.0433C49.7448 41.4434 51.3948 41.6496 52.9546 42.0492L51.1886 34.3922C50.6858 32.5359 48.9972 31.2469 47.0765 31.2469H31.0921C29.3776 31.2469 27.8437 32.2652 27.1733 33.8508L24.3503 41.4434Z" fill="#F0BF5F"/>
<path d="M41.9589 52.568C40.9663 52.568 40.1671 51.7688 40.1671 50.7762V30.1254C40.1671 29.1328 40.9663 28.3336 41.9589 28.3336C42.9515 28.3336 43.7507 29.1328 43.7507 30.1254V50.7633C43.7507 51.7688 42.9515 52.568 41.9589 52.568Z" fill="#F0BF5F"/>
<path d="M54.463 64.8656C50.5442 64.8656 47.3602 61.6816 47.3602 57.7629C47.3602 53.8441 50.5442 50.6602 54.463 50.6602C58.3817 50.6602 61.5657 53.8441 61.5657 57.7629C61.5657 61.6816 58.3817 64.8656 54.463 64.8656ZM54.463 54.2437C52.5294 54.2437 50.9438 55.8164 50.9438 57.7629C50.9438 59.7094 52.5165 61.282 54.463 61.282C56.3966 61.282 57.9821 59.7094 57.9821 57.7629C57.9821 55.8164 56.3966 54.2437 54.463 54.2437Z" fill="#2D527C"/>
<path d="M20.8441 64.8656C16.9253 64.8656 13.7413 61.6816 13.7413 57.7629C13.7413 53.8441 16.9253 50.6602 20.8441 50.6602C24.7628 50.6602 27.9468 53.8441 27.9468 57.7629C27.9597 61.6816 24.7628 64.8656 20.8441 64.8656ZM20.8441 54.2438C18.8976 54.2438 17.3249 55.8164 17.3249 57.7629C17.3249 59.7094 18.8976 61.282 20.8441 61.282C22.7905 61.282 24.3632 59.7094 24.3632 57.7629C24.3632 55.8164 22.7905 54.2438 20.8441 54.2438Z" fill="#2D527C"/>
<path d="M24.3891 25.7168H1.7918C0.799219 25.7168 0 24.9176 0 23.925V2.92617C0 1.93359 0.799219 1.13437 1.7918 1.13437H24.3891C25.3816 1.13437 26.1809 1.93359 26.1809 2.92617V23.925C26.1809 24.9176 25.3816 25.7168 24.3891 25.7168ZM3.58359 22.1332H22.5973V4.71796H3.58359V22.1332Z" fill="#2D527C"/>
<path d="M13.3289 7.25742H9.99021C9.30701 7.25742 8.79138 7.6957 8.79138 8.28867V18.5496C8.79138 19.1684 9.42302 19.5937 10.3125 19.5937C11.2148 19.5937 11.8336 19.1684 11.8336 18.5496V15.3398H13.1613C15.8554 15.3398 17.4023 13.8832 17.4023 11.3309V11.2535C17.4023 8.67539 15.9586 7.25742 13.3289 7.25742ZM13.1613 12.8519H11.8336V9.99023H13.1613C13.9605 9.99023 14.3472 10.4285 14.3472 11.3309V11.5113C14.3472 12.4137 13.9605 12.8519 13.1613 12.8519Z" fill="#2D527C"/>
<path d="M13.0839 40.7988C12.0913 40.7988 11.2921 39.9996 11.2921 39.007V24.157C11.2921 23.1645 12.0913 22.3652 13.0839 22.3652C14.0765 22.3652 14.8757 23.1645 14.8757 24.157V39.007C14.8886 39.9996 14.0765 40.7988 13.0839 40.7988Z" fill="#2D527C"/>
</g>
<defs>
<clipPath id="clip0_96182_462">
<rect width="66" height="66" fill="white"/>
</clipPath>
</defs>
</svg>

<svg width="66" height="66" fill="none" xmlns="http://www.w3.org/2000/svg"><g clip-path="url(#a)"><path d="M15.636 60.315H11.19c-.992 0-1.792-.799-1.792-1.792 0-.992.8-1.791 1.792-1.791h4.447c.993 0 1.792.799 1.792 1.791 0 .993-.799 1.792-1.792 1.792ZM64.208 60.315H59.49c-.992 0-1.791-.799-1.791-1.792 0-.992.799-1.791 1.791-1.791h4.718c.993 0 1.792.799 1.792 1.791 0 .993-.8 1.792-1.792 1.792Z" fill="#F0BF5F"/><path d="M62.236 60.096H59.49c-.992 0-1.791-.8-1.791-1.792s.799-1.791 1.791-1.791h.954v-.787c0-3.66-1.56-6.613-4.511-8.546-2.153-1.405-4.886-2.153-7.902-2.153H21.9a5.087 5.087 0 0 0-4.963 4.035l-1.572 7.45h.541c.993 0 1.792.8 1.792 1.792 0 .993-.8 1.792-1.792 1.792h-2.745a1.8 1.8 0 0 1-1.393-.657 1.791 1.791 0 0 1-.36-1.496l2.023-9.616c.838-3.983 4.409-6.884 8.482-6.884h26.13c3.712 0 7.128.941 9.86 2.733 3.958 2.591 6.137 6.69 6.137 11.55v2.578a1.807 1.807 0 0 1-1.805 1.792Z" fill="#F0BF5F"/><path d="M41.959 60.096H28.282c-.992 0-1.792-.8-1.792-1.792s.8-1.791 1.792-1.791h13.69c.992 0 1.792.799 1.792 1.791 0 .993-.812 1.792-1.805 1.792Z" fill="#F0BF5F"/><path d="M48.03 43.235c2.707 0 5.247.554 7.4 1.611l-2.514-10.892a6.055 6.055 0 0 0-5.852-4.512H31.092a6.02 6.02 0 0 0-5.581 3.739l-3.752 10.054h26.272Z" fill="#CEE8FA"/><path d="M55.43 46.638c-.271 0-.542-.064-.787-.18-1.907-.928-4.202-1.431-6.613-1.431H21.76a1.764 1.764 0 0 1-1.47-.773 1.788 1.788 0 0 1-.206-1.65l3.75-10.055c.014-.026.014-.039.026-.065a7.819 7.819 0 0 1 7.245-4.847h15.972a7.835 7.835 0 0 1 7.58 5.84c0 .013.012.039.012.052l2.514 10.892a1.79 1.79 0 0 1-.632 1.805 1.68 1.68 0 0 1-1.121.412Zm-31.08-5.195h23.693c1.702 0 3.352.207 4.912.606l-1.766-7.657a4.263 4.263 0 0 0-4.112-3.145H31.092a4.243 4.243 0 0 0-3.919 2.604l-2.823 7.592Z" fill="#F0BF5F"/><path d="M41.959 52.568c-.993 0-1.792-.8-1.792-1.792v-20.65c0-.993.8-1.792 1.792-1.792s1.792.799 1.792 1.791v20.638a1.79 1.79 0 0 1-1.792 1.805Z" fill="#F0BF5F"/><path d="M54.463 64.866a7.108 7.108 0 0 1-7.103-7.103 7.108 7.108 0 0 1 7.103-7.103 7.108 7.108 0 0 1 7.103 7.103 7.108 7.108 0 0 1-7.103 7.103Zm0-10.622a3.524 3.524 0 0 0-3.52 3.519 3.515 3.515 0 0 0 3.52 3.519 3.524 3.524 0 0 0 3.52-3.52 3.524 3.524 0 0 0-3.52-3.518ZM20.844 64.866a7.108 7.108 0 0 1-7.103-7.103 7.108 7.108 0 0 1 7.103-7.103 7.108 7.108 0 0 1 7.103 7.103c.013 3.919-3.184 7.103-7.103 7.103Zm0-10.622a3.515 3.515 0 0 0-3.52 3.519 3.515 3.515 0 0 0 3.52 3.519 3.515 3.515 0 0 0 3.52-3.52 3.515 3.515 0 0 0-3.52-3.518ZM24.39 25.717H1.791c-.993 0-1.792-.8-1.792-1.792V2.926c0-.992.8-1.792 1.792-1.792h22.597c.993 0 1.792.8 1.792 1.792v20.999c0 .993-.8 1.792-1.792 1.792ZM3.583 22.133h19.013V4.718H3.584v17.415Z" fill="#2D527C"/><path d="M13.329 7.257H9.99c-.683 0-1.199.439-1.199 1.032v10.26c0 .62.632 1.045 1.521 1.045.903 0 1.522-.426 1.522-1.044v-3.21h1.327c2.694 0 4.241-1.457 4.241-4.01v-.076c0-2.579-1.443-3.997-4.073-3.997Zm-.168 5.595h-1.327V9.99h1.327c.8 0 1.186.438 1.186 1.34v.181c0 .903-.386 1.34-1.186 1.34ZM13.084 40.799c-.993 0-1.792-.8-1.792-1.792v-14.85c0-.992.8-1.792 1.792-1.792s1.792.8 1.792 1.792v14.85c.013.993-.8 1.792-1.792 1.792Z" fill="#2D527C"/></g><defs><clipPath id="a"><path fill="#fff" d="M0 0h66v66H0z"/></clipPath></defs></svg>
